X:1
T: Miss Smyth (of Methven's) Favourite
C:R. Mackintosh
R:Jig
Q: 180
K:Bb
M:6/8
L:1/8
|:F|D1/2E1/2FF FDB,|EGB BGE|D1/2E1/2FF FDB,|DCC C2E|
D1/2E1/2FF FDB,|EGB BGE|ABc Fec|dBB B2:|
|:d1/2e1/2|fdg fdB|bag fdB|e3/2f1/2g fed|ecc c2d1/2e1/2|
|1fdg fdB|bag fdB|ABc FGA|B3 B2:|
|2fdf geg|afa bag|fed c3/2B1/2c|dBB B2||
